X:1
T:Title
%%score { ( 1 3 5 ) | ( 2 4 ) }
L:1/8
Q:1/4=92
M:6/8
K:C
V:1 treble nm="Grand Piano"
V:3 treble 
V:5 treble 
V:2 bass 
V:4 bass 
V:1
 [EG]>[EG][EG] [CE][DF][_E^F] | [EG]3 [Ec]3 | [Gc][GB][^Gc] [Ad][CAc][CFA] | [CEG]6 | %4
w: W.~H.~Doane * * * * *||||
 [B,FA]>[B,FA][B,FA] [G,B,D][G,CE][B,DF] | [FA]3 [EG]3 | [EG][_EA][=EG] [_E^F][EB][FA] | G6 | %8
w: ||||
 [CEG]>[CEG][CEG] [G,CE][G,DF][A,_E^F] | [CEG]3 [Ec]3 | [Gc][GB][^Gc] [Ad][Ac][FA] | [EG]6 | %12
w: ||||
 [CE][EG][Ec] [Ge][Gd][Gc] | A3 c3 | GGG [DFB][DFA][FB] | [Ec]6 | .[Ge]6 | .[Fd]6 | .[EG]6 | %19
w: |||||||
 [Gd]6 | .[Ge]6 | [Fd]3 .c3 | .G3 z3 | [Ec]6 |] %24
w: |||||
V:2
 [C,C]>[C,C][C,C] [C,G,][C,G,][C,A,] | [C,C]3 [C,G,]3 | [E,C][E,C][E,C] [F,C]F,F, | C,6 | %4
 G,>G,G, G,,G,,G,, | [C,C]6 | [B,,G,][B,,^F,][B,,G,] [B,,A,][B,,F,][B,,B,] | B,6 | C,>C,C, C,C,C, | %9
 C,3 [C,G,]3 | [E,C][E,C][E,C] [F,C][F,C][F,C] | [C,C]6 | [C,G,][C,C][C,C] [C,C][D,B,][E,C] | %13
 [F,CF]3 [F,A,F]3 | [G,B,D][G,CE][G,DF][K:bass] G,,G,,[G,,G,] | [C,G,]6 | [C,C]C,C, z F[C,G,] | %17
 [F,A,]F,F, z FF, | C,C,C, C,[C,G,][C,C] | [G,B,]G,G, G,3 | [C,C]C,C, C,[D,B,][E,_B,] | %21
 [F,A,]F,F,[K:treble] F-[F,F][F,CF] | .G,3[K:bass] z3 | [C,G,]6 |] %24
V:3
 x6 | x6 | x6 | x6 | x6 | x6 | x6 | z3 .F3 | x6 | x6 | x6 | x6 | x6 | x6 | x6 | x6 | z CC z d[Ec] | %17
 z A,A, z c[CFA] | CCC C[Ec][Ge] | z B,B, B,3 | z CC C[Gd][Gc] | z A,A, z A,A | %22
 z E[DFG] [DFB][DFA][FB] | x6 |] %24
V:4
 x6 | x6 | x6 | x6 | x6 | x6 | x6 | E,3 .D,3 | x6 | x6 | x6 | x6 | x6 | x6 | x3[K:bass] x3 | x6 | %16
 z3 .C,3 | z3 .F,3 | x6 | x6 | x6 | z3[K:treble] .[F,A,]3 | [B,D]C[K:bass]G, G,,G,,[G,,G,] | x6 |] %24
V:5
 x6 | x6 | x6 | x6 | x6 | x6 | x6 | x6 | x6 | x6 | x6 | x6 | x6 | x6 | x6 | x6 | z3 .G,3 | %17
 z3 .A,3 | x6 | x6 | x6 | x6 | x6 | x6 |] %24

